build/img/svg/twit.svg

<svg width="20" height="20" viewBox="0 0 20 20" fill="none" xmlns="http://www.w3.org/2000/svg">
<g clip-path="url(#clip0)">
<path d="M20.5566 4.11991C19.821 4.44634 19.0301 4.66704 18.2 4.76626C19.0471 4.25826 19.6978 3.4543 20.0041 2.49598C19.2112 2.96641 18.3332 3.30777 17.3985 3.49187C16.65 2.69429 15.5836 2.19617 14.4035 2.19617C12.1374 2.19617 10.3002 4.03334 10.3002 6.29917C10.3002 6.62089 10.3365 6.93395 10.4064 7.23413C6.99626 7.06315 3.97295 5.42971 1.94926 2.94727C1.59599 3.55304 1.39358 4.2579 1.39358 5.00984C1.39358 6.4333 2.11808 7.68951 3.21896 8.42508C2.54637 8.40377 1.91374 8.21942 1.36047 7.91178C1.36011 7.929 1.36012 7.94634 1.36012 7.96356C1.36012 9.95148 2.77441 11.6099 4.65144 11.9868C4.3072 12.0806 3.94453 12.1307 3.57042 12.1307C3.30613 12.1307 3.04894 12.105 2.79826 12.0573C3.32046 13.6871 4.83579 14.8736 6.6313 14.9065C5.22711 16.0074 3.45785 16.6632 1.53555 16.6632C1.20431 16.6632 0.877646 16.6437 0.556641 16.6055C2.3725 17.7701 4.52923 18.4493 6.84635 18.4493C14.3935 18.4493 18.5207 12.1968 18.5207 6.77489C18.5207 6.59705 18.5167 6.4203 18.5088 6.24414C19.311 5.66546 20.0066 4.9429 20.5566 4.11991Z" fill="black"/>
</g>
<defs>
<clipPath id="clip0">
<rect width="20" height="20" fill="white"/>
</clipPath>
</defs>
</svg>

<svg width="20" height="20" fill="none" xmlns="http://www.w3.org/2000/svg"><g clip-path="url(#clip0)"><path d="M20.557 4.12a8.199 8.199 0 01-2.357.646 4.116 4.116 0 001.804-2.27c-.793.47-1.67.812-2.606.996a4.103 4.103 0 00-6.992 3.742A11.648 11.648 0 011.95 2.947a4.101 4.101 0 001.27 5.478 4.083 4.083 0 01-1.859-.513v.052a4.106 4.106 0 003.291 4.023 4.108 4.108 0 01-1.853.07 4.107 4.107 0 003.833 2.85 8.23 8.23 0 01-6.074 1.698 11.61 11.61 0 006.29 1.844c7.546 0 11.674-6.252 11.674-11.674 0-.178-.004-.355-.012-.53a8.33 8.33 0 002.048-2.125z" fill="#000"/></g><defs><clipPath id="clip0"><path fill="#fff" d="M0 0h20v20H0z"/></clipPath></defs></svg>
